SeaMapSymbols/Cairn.svg

<?xml version="1.0" encoding="UTF-8" standalone="no"?>
<svg
   xmlns:dc="http://purl.org/dc/elements/1.1/"
   xmlns:cc="http://creativecommons.org/ns#"
   xmlns:rdf="http://www.w3.org/1999/02/22-rdf-syntax-ns#"
   xmlns:svg="http://www.w3.org/2000/svg"
   xmlns="http://www.w3.org/2000/svg"
   xmlns:sodipodi="http://sodipodi.sourceforge.net/DTD/sodipodi-0.dtd"
   xmlns:inkscape="http://www.inkscape.org/namespaces/inkscape"
   version="1.0"
   width="300"
   height="400"
   id="svg2"
   inkscape:version="0.48.2 r9819"
   sodipodi:docname="Cairn.svg"
   style="display:inline">
  <metadata
     id="metadata2913">
    <rdf:RDF>
      <cc:Work
         rdf:about="">
        <dc:format>image/svg+xml</dc:format>
        <dc:type
           rdf:resource="http://purl.org/dc/dcmitype/StillImage" />
        <dc:title />
      </cc:Work>
    </rdf:RDF>
  </metadata>
  <sodipodi:namedview
     pagecolor="#ffffff"
     bordercolor="#666666"
     borderopacity="1"
     objecttolerance="10"
     gridtolerance="10"
     guidetolerance="10"
     inkscape:pageopacity="0"
     inkscape:pageshadow="2"
     inkscape:window-width="1920"
     inkscape:window-height="1088"
     id="namedview2911"
     showgrid="true"
     inkscape:zoom="6.9285255"
     inkscape:cx="144.57336"
     inkscape:cy="224.61384"
     inkscape:window-x="0"
     inkscape:window-y="0"
     inkscape:window-maximized="0"
     inkscape:current-layer="g3249"
     inkscape:snap-grids="false">
    <inkscape:grid
       type="xygrid"
       id="grid2919"
       empspacing="5"
       visible="true"
       enabled="true"
       snapvisiblegridlinesonly="true" />
  </sodipodi:namedview>
  <defs
     id="defs4" />
  <g
     transform="translate(0,80)"
     style="display:inline"
     inkscape:label="Cairn"
     id="g3249"
     inkscape:groupmode="layer">
    <path
       style="fill:#000407;fill-opacity:1;fill-rule:evenodd;stroke:none"
       d="M 148.90625 126.3125 C 137.55507 126.88789 128.5 136.33195 128.5 147.8125 C 128.5 151.68833 129.53993 155.32437 131.34375 158.46875 C 130.09357 158.23966 128.81162 158.15625 127.5 158.15625 C 115.75413 158.15625 106.03125 167.72131 106.03125 179.6875 C 106.03125 186.92533 109.5932 193.28507 115 197.1875 C 114.74837 197.18779 114.04057 197.18719 113.8125 197.1875 L 113.8125 202.84375 L 137.8125 202.84375 C 139.09982 208.3767 144.04577 212.49999 149.96875 212.5 C 155.8937 212.5 160.8397 208.37948 162.125 202.84375 L 186.125 202.84375 L 186.125 197.1875 C 186.125 197.1875 184.9982 197.18751 184.96875 197.1875 C 190.37555 193.28507 193.9375 186.92533 193.9375 179.6875 C 193.9375 167.72131 184.24587 158.15625 172.5 158.15625 C 171.19436 158.15625 169.90106 158.2417 168.65625 158.46875 C 170.46007 155.32437 171.5 151.68833 171.5 147.8125 C 171.5 135.96206 161.85042 126.3125 150 126.3125 C 149.73021 126.3125 149.37303 126.28884 148.90625 126.3125 z M 149.09375 130.3125 C 149.29169 130.30246 149.59669 130.3125 150 130.3125 C 159.68866 130.3125 167.5 138.12382 167.5 147.8125 C 167.5 157.50118 159.68866 165.3125 150 165.3125 C 140.31132 165.3125 132.5 157.50118 132.5 147.8125 C 132.5 138.42703 139.83849 130.78165 149.09375 130.3125 z M 127.5 162.28125 C 137.29323 162.28125 145.0625 170.11458 145.0625 179.6875 C 145.0625 189.26042 137.29323 197.09375 127.5 197.09375 C 117.70677 197.09375 109.90625 189.26042 109.90625 179.6875 C 109.90625 170.11458 117.70677 162.28125 127.5 162.28125 z M 172.5 162.28125 C 182.29323 162.28125 190.0625 170.11458 190.0625 179.6875 C 190.0625 189.26042 182.29323 197.09375 172.5 197.09375 C 162.70677 197.09375 154.90625 189.26042 154.90625 179.6875 C 154.90625 170.11458 162.70677 162.28125 172.5 162.28125 z M 146.0625 168.9375 C 147.34169 169.17591 148.653 169.3125 150 169.3125 C 151.33613 169.3125 152.63675 169.17216 153.90625 168.9375 C 152.08216 172.09987 151.03125 175.75615 151.03125 179.6875 C 151.03125 182.56244 151.6104 185.31204 152.625 187.8125 C 151.77218 187.62848 150.87728 187.53125 149.96875 187.53125 C 149.07569 187.53125 148.21444 187.63432 147.375 187.8125 C 148.38879 185.3129 148.9375 182.56123 148.9375 179.6875 C 148.9375 175.75348 147.88888 172.10132 146.0625 168.9375 z M 149.96875 192.5 C 153.10869 192.5 155.78927 194.44755 156.90625 197.1875 C 157.262 198.06017 157.46875 198.99994 157.46875 200 C 157.46875 204.14 154.10875 207.5 149.96875 207.5 C 145.82875 207.5 142.46875 204.14 142.46875 200 C 142.46875 198.99994 142.6755 198.06017 143.03125 197.1875 C 144.14823 194.44755 146.82881 192.5 149.96875 192.5 z M 143.03125 197.1875 C 149.37637 197.18796 151.07244 197.18635 156.90625 197.1875 C 152.23388 197.18061 147.71554 197.1803 143.03125 197.1875 z "
       transform="translate(0,-80)"
       id="path3251" />
  </g>
</svg>

<?xml version="1.0" encoding="UTF-8" standalone="no"?>
<svg id="svg2" xmlns:rdf="http://www.w3.org/1999/02/22-rdf-syntax-ns#" xmlns="http://www.w3.org/2000/svg" height="400" width="300" version="1.0" xmlns:cc="http://creativecommons.org/ns#" xmlns:dc="http://purl.org/dc/elements/1.1/">
 <metadata id="metadata2913">
  <rdf:RDF>
   <cc:Work rdf:about="">
    <dc:format>image/svg+xml</dc:format>
    <dc:type rdf:resource="http://purl.org/dc/dcmitype/StillImage"/>
    <dc:title/>
   </cc:Work>
  </rdf:RDF>
 </metadata>
 <g id="g3249" transform="translate(0,80)">
  <path id="path3251" d="m148.91 126.31c-11.35 0.58-20.41 10.02-20.41 21.5 0 3.88 1.04 7.51 2.84 10.66-1.25-0.23-2.53-0.31-3.84-0.31-11.75 0-21.47 9.56-21.47 21.53 0 7.24 3.56 13.6 8.97 17.5h-1.19v5.65h24c1.29 5.54 6.24 9.66 12.16 9.66s10.87-4.12 12.15-9.66h24v-5.65h-1.15c5.41-3.9 8.97-10.26 8.97-17.5 0-11.97-9.69-21.53-21.44-21.53-1.31 0-2.6 0.08-3.84 0.31 1.8-3.15 2.84-6.78 2.84-10.66 0-11.85-9.65-21.5-21.5-21.5-0.27 0-0.63-0.02-1.09 0zm0.18 4c0.2-0.01 0.51 0 0.91 0 9.69 0 17.5 7.81 17.5 17.5s-7.81 17.5-17.5 17.5-17.5-7.81-17.5-17.5c0-9.38 7.34-17.03 16.59-17.5zm-21.59 31.97c9.79 0 17.56 7.83 17.56 17.41 0 9.57-7.77 17.4-17.56 17.4s-17.59-7.83-17.59-17.4c0-9.58 7.8-17.41 17.59-17.41zm45 0c9.79 0 17.56 7.83 17.56 17.41 0 9.57-7.77 17.4-17.56 17.4s-17.59-7.83-17.59-17.4c0-9.58 7.8-17.41 17.59-17.41zm-26.44 6.66c1.28 0.24 2.59 0.37 3.94 0.37 1.34 0 2.64-0.14 3.91-0.37-1.83 3.16-2.88 6.82-2.88 10.75 0 2.87 0.58 5.62 1.59 8.12-0.85-0.18-1.74-0.28-2.65-0.28-0.89 0-1.76 0.1-2.59 0.28 1.01-2.5 1.56-5.25 1.56-8.12 0-3.94-1.05-7.59-2.88-10.75zm3.91 23.56c3.14 0 5.82 1.95 6.94 4.69 0.35 0.87 0.56 1.81 0.56 2.81 0 4.14-3.36 7.5-7.5 7.5s-7.5-3.36-7.5-7.5c0-1 0.21-1.94 0.56-2.81 1.12-2.74 3.8-4.69 6.94-4.69zm-6.94 4.69h13.88c-4.68-0.01-9.19-0.01-13.88 0z" fill-rule="evenodd" transform="translate(0,-80)" fill="#000407"/>
 </g>
</svg>
